**kern	**kern	**dynam
*part1	*part1	*part1
*staff2	*staff1	*
*I"Piano	*	*
*clefF4	*clefG2	*
*k[b-e-a-d-]	*k[b-e-a-d-]	*
=1	=1	=1
*^	*	*
8rBB	4.BB-	4c 4f 4a-	.
(8A-L	.	.	.
8FJ)	.	8dn 8f 8a- 8cc	.
=	=	=	=
*	*	*^	*
8rBB	4.EE-	4.e-^^) 4.ee-	(4g	.
(8E-L	.	.	.	.
8BB-J)	.	.	8b-)	[
=	=	=	=	=
8r	4.EE-	4.e-^^ 4.ee-	(4g	.
(8E-L	.	.	.	.
8BB-J)	.	.	8b-)	.
*	*	*v	*v	*
=	=	=	=
8rF	4.E-	(4g-X 4b- 4ee-	f
(8e-L	.	.	.
8B-J)	.	8e- 8g- 8b-	.
=	=	=	=
8r	4.AA-	8.g-XL 8.b- 8.cc	.
(8A-L	.	.	.
.	.	16fK 16a- 16dd-	.
8AA-J)	.	8e-J 8g- 8cc 8ee-	.
=	=	=	=
8rF	4.D-	4f 4a- 4dd-	.
(8d-L	.	.	.
8A-J)	.	8f 8a-	.
=	=	=	=
8r	4.FF	8.e-L 8.g-X 8.an	.
(8FL	.	.	.
.	.	16d-K 16f 16b-	.
8FFJ)	.	8cJ 8e- 8a 8cc	.
=	=	=	=
8r	(4.D-	4d- 4f 4b-	.
(8B-L	.	.	.
8FJ)	.	8d- 8f 8b-	.
*v	*v	*	*
=	=	=
*-	*-	*-
!!!system-decoration: {(s1,s2)}
